X:530
T:The Jolly Young Waterman
M:6/8
L:1/8
B:O'Neill's 530
N:"Cheerfully"
Z:Transcribed by Dave Wooldridge
K:D
(f/2g/2) \
| (a>b)g (f>ge) | (dc).d (ec).A | (A>BA) (Adc) | (Bgf) e2 (f/2g/2) |
(a>bg) (f>ge) | dcd ecA | ABc deg | fge d2 ||
d \
| (dg).b .b(ag) | (df).a .a(fd) | (dg).b .b(ag) | (d2 f) (afd) |
(gab) (bag) | (fga) (afd) | (Bgf) (edc) | d3 d2 ||


